src/assets/images/image.svg

<svg width="512" height="512" viewBox="0 0 512 512" fill="none" xmlns="http://www.w3.org/2000/svg">
<path d="M448 80C456.8 80 464 87.2 464 96V415.8L459 409.3L323 233.3C318.5 227.4 311.4 224 304 224C296.6 224 289.6 227.4 285 233.3L202 340.7L171.5 298C167 291.7 159.8 288 152 288C144.2 288 137 291.7 132.5 298.1L52.5 410.1L48 416.3V416V96C48 87.2 55.2 80 64 80H448ZM64 32C28.7 32 0 60.7 0 96V416C0 451.3 28.7 480 64 480H448C483.3 480 512 451.3 512 416V96C512 60.7 483.3 32 448 32H64ZM144 224C150.303 224 156.545 222.758 162.369 220.346C168.192 217.934 173.484 214.398 177.941 209.941C182.398 205.484 185.934 200.192 188.346 194.369C190.758 188.545 192 182.303 192 176C192 169.697 190.758 163.455 188.346 157.631C185.934 151.808 182.398 146.516 177.941 142.059C173.484 137.602 168.192 134.066 162.369 131.654C156.545 129.242 150.303 128 144 128C137.697 128 131.455 129.242 125.631 131.654C119.808 134.066 114.516 137.602 110.059 142.059C105.602 146.516 102.066 151.808 99.6538 157.631C97.2416 163.455 96 169.697 96 176C96 182.303 97.2416 188.545 99.6538 194.369C102.066 200.192 105.602 205.484 110.059 209.941C114.516 214.398 119.808 217.934 125.631 220.346C131.455 222.758 137.697 224 144 224Z" fill="#CCCCCC"/>
</svg>

<svg xmlns="http://www.w3.org/2000/svg" viewBox="0 0 512 512"><!--! Font Awesome Pro 6.4.0 by @fontawesome - https://fontawesome.com License - https://fontawesome.com/license (Commercial License) Copyright 2023 Fonticons, Inc. --><path d="M448 80c8.8 0 16 7.2 16 16V415.8l-5-6.5-136-176c-4.5-5.9-11.6-9.3-19-9.3s-14.4 3.4-19 9.3L202 340.7l-30.5-42.7C167 291.7 159.8 288 152 288s-15 3.7-19.5 10.1l-80 112L48 416.3l0-.3V96c0-8.8 7.2-16 16-16H448zM64 32C28.7 32 0 60.7 0 96V416c0 35.3 28.7 64 64 64H448c35.3 0 64-28.7 64-64V96c0-35.3-28.7-64-64-64H64zm80 192a48 48 0 1 0 0-96 48 48 0 1 0 0 96z"/></svg>
